X: 257
T: Dry and Dusty [2]
B: canberra pickers and fiddlers
B: tunes
M:4/4
L:1/8
Q: 1/4=100
K:D
V:1 
AB|"D"d2d2 e2de|"D"faef d2AB|"D"d2d2 e2de|"A7"f2 a2- a2AB|!
"D"d2d2 e2de|"D"fa3 f3e|"G"d2B2 "A7"ABAF |1"D"(3EFE D4:|2(3"D"EFE D4AB|]!
|:"D"AF3 F2AB|"G"AD3 D2AB|"D"A2F2 "A"FEDE|"D"F2A2- A2AB|!
"D"AF3 F2AB|AD3 "G"d3B|"D"A2F2 "A"E3F|1"D"(3EFE D2AB:|2"D"(3EFE D4|]
% abcbook-tune_id 63ae8f1cd466c2472f77a9d8
% abcbook-tune_composer_id 
% abcbook-link-0 https://www.youtube.com/watch?v=wu3vn98zCGc
% abcbook-link-start-at-0 9
% abcbook-link-end-at-0 60
% abcbook-boost 0
% abcbook-difficulty 0
% abcbook-tags canberra pickers and fiddlers,old time tunes,steve ryan,© free
% abcbook-tablature 
% abcbook-transpose 
% abcbook-tuning DDAD
% abcbook-lastupdated 1677371254088
% abcbook-src-url https://tunebook.net/scrape/tunes.abc
% abcbook-soundfonts 
% abcbook-repeats 1


